public/assets/images/web-main.svg

<svg width="136" height="136" viewBox="0 0 136 136" fill="none" xmlns="http://www.w3.org/2000/svg">
<mask id="mask0_1668_44" style="mask-type:luminance" maskUnits="userSpaceOnUse" x="5" y="5" width="126" height="126">
<path d="M5.23047 5.23071H130.769V130.769H5.23047V5.23071Z" fill="white"/>
</mask>
<g mask="url(#mask0_1668_44)">
<path d="M7.68164 43.3154H46.1511H119.371" stroke="#973492" stroke-width="3.6" stroke-miterlimit="10" stroke-linecap="round" stroke-linejoin="round"/>
<path d="M28.1583 32.8816C31.3693 32.8816 33.9894 30.2698 33.9894 27.0605C33.9894 23.8512 31.3693 21.2394 28.1583 21.2394C24.9544 21.2394 22.334 23.8512 22.334 27.0605C22.334 30.2698 24.9544 32.8816 28.1583 32.8816Z" stroke="#973492" stroke-width="3.6" stroke-miterlimit="10" stroke-linecap="round" stroke-linejoin="round"/>
<path d="M78.7755 21.2392H100.71C103.914 21.2392 106.535 23.8581 106.535 27.0604C106.535 30.2628 103.914 32.8815 100.71 32.8815H78.7755C75.5715 32.8815 72.9512 30.2628 72.9512 27.0604C72.9512 23.8581 75.5715 21.2392 78.7755 21.2392Z" stroke="#515151" stroke-width="3.6" stroke-miterlimit="10" stroke-linecap="round" stroke-linejoin="round"/>
<path d="M49.6602 32.8816C52.8713 32.8816 55.4914 30.2698 55.4914 27.0605C55.4914 23.8512 52.8713 21.2394 49.6602 21.2394C46.4563 21.2394 43.8359 23.8512 43.8359 27.0605C43.8359 30.2698 46.4563 32.8816 49.6602 32.8816Z" stroke="#973492" stroke-width="3.6" stroke-miterlimit="10" stroke-linecap="round" stroke-linejoin="round"/>
<path d="M45.0535 62.1752L40.1465 82.7093" stroke="#515151" stroke-width="3.6" stroke-miterlimit="10" stroke-linecap="round" stroke-linejoin="round"/>
<path d="M56.3535 80.8547L63.2966 73.0605C63.6024 72.7202 63.6024 72.1646 63.2966 71.8242L56.3535 64.0301" stroke="#973492" stroke-width="3.6" stroke-miterlimit="10" stroke-linecap="round" stroke-linejoin="round"/>
<path d="M28.8445 80.8547L21.9014 73.0605C21.5954 72.7202 21.5954 72.1646 21.9014 71.8242L28.8445 64.0301" stroke="#973492" stroke-width="3.6" stroke-miterlimit="10" stroke-linecap="round" stroke-linejoin="round"/>
<path d="M104.415 73.0117C107.098 73.6093 109.607 74.6651 111.866 76.082L113.875 74.0815C115.063 72.8867 117.016 72.8867 118.212 74.0815L121.374 77.2423C122.569 78.4371 122.569 80.3891 121.374 81.577L119.372 83.5844C120.783 85.8213 121.825 88.3083 122.43 90.9618H125.245C126.934 90.9618 128.317 92.3442 128.317 94.0252V98.5058C128.317 100.187 126.934 101.569 125.245 101.569H122.416C121.812 104.209 120.769 106.682 119.372 108.905L121.374 110.905C122.569 112.1 122.569 114.052 121.374 115.24L118.212 118.408C117.016 119.602 115.063 119.602 113.875 118.408L111.866 116.407C109.635 117.81 107.154 118.852 104.499 119.457V122.304C104.499 123.993 103.116 125.375 101.434 125.375H96.951C95.2687 125.375 93.8858 123.993 93.8858 122.304V119.45C91.2446 118.852 88.7635 117.803 86.5323 116.407L84.5308 118.408C83.3352 119.602 81.3825 119.602 80.1938 118.408L77.0247 115.24C75.836 114.052 75.836 112.1 77.0247 110.905L79.0331 108.905C77.6293 106.682 76.5868 104.209 75.9821 101.569H73.1394C71.4507 101.569 70.0742 100.187 70.0742 98.5058V94.0252C70.0742 92.3442 71.4507 90.9618 73.1394 90.9618H75.9753C76.5728 88.336 77.6016 85.877 78.9845 83.6609L76.969 81.6396C75.7737 80.4516 75.7737 78.4996 76.969 77.3048L80.1313 74.144C81.3268 72.9492 83.2798 72.9492 84.4682 74.144L86.4629 76.1308C88.6873 74.7207 91.1612 73.6715 93.8025 73.0534V70.2263C93.8025 68.5382 95.1785 67.1558 96.8674 67.1558H101.343C103.032 67.1558 104.415 68.5382 104.415 70.2263V73.0117Z" stroke="#973492" stroke-width="3.6" stroke-miterlimit="10" stroke-linecap="round" stroke-linejoin="round"/>
<path d="M99.1934 83.6331C106.171 83.6331 111.829 89.2877 111.829 96.2688C111.829 103.243 106.171 108.898 99.1934 108.898C92.2086 108.898 86.5508 103.243 86.5508 96.2688C86.5508 89.2877 92.2086 83.6331 99.1934 83.6331Z" stroke="#973492" stroke-width="3.6" stroke-miterlimit="10" stroke-linecap="round" stroke-linejoin="round"/>
<path d="M31.3263 101.569H16.8141C11.7965 101.569 7.68164 96.658 7.68164 90.663V21.5308C7.68164 15.5292 11.7891 10.6249 16.8141 10.6249H27.3924H110.239C115.264 10.6249 119.371 15.5361 119.371 21.5308V75.2416M73.1387 101.569H53.2403" stroke="#973492" stroke-width="3.6" stroke-miterlimit="10" stroke-linecap="round" stroke-linejoin="round"/>
<path d="M42.3066 101.569H42.3536" stroke="#973492" stroke-width="3.6" stroke-miterlimit="10" stroke-linecap="round" stroke-linejoin="round"/>
</g>
</svg>

<svg xmlns="http://www.w3.org/2000/svg" xmlns:xlink="http://www.w3.org/1999/xlink" width="136" height="136" fill="none" xmlns:v="https://vecta.io/nano"><style><![CDATA[.B{strokeWidth:3.6}.C{stroke-miterlimit:10}.D{strokeLinejoin:round}.E{stroke:#973492}.F{strokeLinecap:round}]]></style><mask id="A" maskUnits="userSpaceOnUse" x="5" y="5" width="126" height="126"><path d="M5.229 5.231h125.539v125.538H5.229V5.231z" fill="#fff"/></mask><g mask="url(#A)" class="B C D"><path d="M7.681 43.315H119.37" class="E F"/><use xlink:href="#C" class="E"/><path d="M78.775 21.239h21.935c3.204 0 5.825 2.619 5.825 5.821s-2.621 5.821-5.825 5.821H78.775a5.84 5.84 0 0 1-5.824-5.821 5.84 5.84 0 0 1 5.824-5.821z" stroke="#515151"/><use xlink:href="#C" x="21.503" class="E"/><path d="M45.053 62.175l-4.907 20.534" stroke="#515151" class="F"/><path d="M56.352 80.855l6.943-7.794a.95.95 0 0 0 0-1.236l-6.943-7.794M28.844 80.855L21.9 73.061a.95.95 0 0 1 0-1.236l6.943-7.794" class="E F"/><path d="M104.414 73.012c2.683.598 5.192 1.653 7.451 3.07l2.009-2c1.188-1.195 3.141-1.195 4.337 0l3.162 3.161a3.07 3.07 0 0 1 0 4.335l-2.002 2.007a23.66 23.66 0 0 1 3.058 7.377h2.815a3.08 3.08 0 0 1 3.072 3.063v4.481a3.08 3.08 0 0 1-3.072 3.063h-2.829c-.604 2.64-1.647 5.113-3.044 7.336l2.002 2a3.07 3.07 0 0 1 0 4.335l-3.162 3.168c-1.196 1.194-3.149 1.194-4.337 0l-2.009-2.001c-2.231 1.403-4.712 2.445-7.367 3.05v2.847a3.08 3.08 0 0 1-3.065 3.071H96.95a3.08 3.08 0 0 1-3.065-3.071v-2.854c-2.641-.598-5.122-1.647-7.353-3.043l-2.002 2.001c-1.196 1.194-3.148 1.194-4.337 0l-3.169-3.168c-1.189-1.188-1.189-3.14 0-4.335l2.008-2a23.6 23.6 0 0 1-3.051-7.336h-2.843c-1.689 0-3.065-1.382-3.065-3.063v-4.481c0-1.681 1.377-3.063 3.065-3.063h2.836c.597-2.626 1.626-5.085 3.009-7.301l-2.016-2.021a3.07 3.07 0 0 1 0-4.335l3.162-3.161c1.196-1.195 3.148-1.195 4.337 0l1.995 1.987c2.224-1.41 4.698-2.459 7.34-3.077v-2.827c0-1.688 1.376-3.07 3.065-3.07h4.476c1.689 0 3.072 1.382 3.072 3.07v2.785z" class="E"/><path d="M99.192 83.633c6.978 0 12.636 5.655 12.636 12.636 0 6.974-5.658 12.629-12.636 12.629-6.985 0-12.643-5.655-12.643-12.629a12.64 12.64 0 0 1 12.643-12.636z" class="E"/><path d="M31.325 101.569H16.813c-5.018 0-9.132-4.911-9.132-10.906V21.531c0-6.002 4.107-10.906 9.132-10.906h10.578 82.847c5.025 0 9.132 4.911 9.132 10.906v53.711m-46.232 26.327H53.239m-10.933 0h.047" class="E F"/></g><defs ><path id="C" d="M28.157 32.882c3.211 0 5.831-2.612 5.831-5.821s-2.62-5.821-5.831-5.821c-3.204 0-5.824 2.612-5.824 5.821s2.62 5.821 5.824 5.821z"/></defs></svg>
